static/assets/img/icons/theme/media/airplay.svg

<svg height="24" viewBox="0 0 24 24" width="24" xmlns="http://www.w3.org/2000/svg"><g fill="none" fill-rule="evenodd"><path d="m0 0h24v24h-24z" opacity="0"/><g fill="#000"><path d="m8 21h8l-4-5z" opacity=".3"/><path d="m17.4029496 14.5491021-1.5430482 1.2724001c-.9449962-1.1460032-2.3461542-1.8215022-3.8599014-1.8215022-1.5087915 0-2.90581596.6710418-3.85089879 1.8106159l-1.53946933-1.2767279c1.32110717-1.5929816 3.27995571-2.533888 5.39036812-2.533888 2.1173586 0 4.0819686.9471394 5.4029496 2.5491021zm3.0652132-2.5702133-1.5389938 1.277301c-1.7004965-2.0488934-4.2151593-3.2561898-6.929169-3.2561898-2.71025768 0-5.22179268 1.2039334-6.92233744 3.2479685l-1.53748444-1.2791175c2.07658631-2.49603271 5.14904422-3.968851 8.45982188-3.968851 3.3153667 0 6.3916375 1.47692603 8.4681628 3.9788888zm2.8222799-2.25839996-1.6119357 1.18391856c-2.2482242-3.06101541-5.8086639-4.9044074-9.678507-4.9044074-3.9233088 0-7.52717378 1.89509192-9.7674113 5.0270624l-1.6267012-1.16354764c2.61183639-3.65148539 6.81841608-5.86351476 11.3941125-5.86351476 4.5132783 0 8.6693179 2.15175957 11.2904427 5.72048884z" fill-rule="nonzero"/></g></g></svg>

<svg width="24px" height="24px" viewBox="0 0 24 24" version="1.1" xmlns="http://www.w3.org/2000/svg" xmlns:xlink="http://www.w3.org/1999/xlink">
    <title>Icon For Airplay</title>
    <g stroke="none" stroke-width="1" fill="none" fill-rule="evenodd">
        <rect opacity="0" x="0" y="0" width="24" height="24"></rect>
        <polygon fill="#000000" opacity="0.3" points="8 21 16 21 12 16"></polygon>
        <path d="M17.4029496,14.5491021 L15.8599014,15.8215022 C14.9149052,14.675499 13.5137472,14 12,14 C10.4912085,14 9.09418404,14.6710418 8.14910121,15.8106159 L6.60963188,14.533888 C7.93073905,12.9409064 9.88958759,12 12,12 C14.1173586,12 16.0819686,12.9471394 17.4029496,14.5491021 Z M20.4681628,11.9788888 L18.929169,13.2561898 C17.2286725,11.2072964 14.7140097,10 12,10 C9.28974232,10 6.77820732,11.2039334 5.07766256,13.2479685 L3.54017812,11.968851 C5.61676443,9.47281829 8.68922234,8 12,8 C15.3153667,8 18.3916375,9.47692603 20.4681628,11.9788888 Z M23.2904427,9.72048884 L21.678507,10.9044074 C19.4302828,7.84339199 15.8698431,6 12,6 C8.0766912,6 4.47282622,7.89509192 2.2325887,11.0270624 L0.605887503,9.86351476 C3.21772389,6.21202937 7.42430358,4 12,4 C16.5132783,4 20.6693179,6.15175957 23.2904427,9.72048884 Z" fill="#000000" fill-rule="nonzero"></path>
    </g>
</svg>
